chrome/img/svgs/eyeopen-icon.svg

<?xml version="1.0" encoding="UTF-8"?>
<svg width="80px" height="47px" viewBox="0 0 80 47" version="1.1" xmlns="http://www.w3.org/2000/svg" xmlns:xlink="http://www.w3.org/1999/xlink">
    <!-- Generator: Sketch 42 (36781) - http://www.bohemiancoding.com/sketch -->
    <title>noun_800026</title>
    <desc>Created with Sketch.</desc>
    <defs></defs>
    <g id="Icons" stroke="none" stroke-width="1" fill="none" fill-rule="evenodd">
        <g id="noun_800026" fill-rule="nonzero" fill="#818181">
            <g id="Group">
                <path d="M79.3765871,21.7308989 C69.0052158,7.73651685 55.0298324,0.0264044944 40,0.0264044944 C24.9701676,0.0264044944 10.9947842,7.73651685 0.62341293,21.7308989 C-0.179227334,22.8134831 -0.179227334,24.1865169 0.62341293,25.2691011 C10.9947842,39.2634831 24.9701676,46.9735955 40,46.9735955 C55.0298324,46.9735955 69.0052158,39.2634831 79.3765871,25.2691011 C80.1792273,24.1865169 80.1792273,22.8134831 79.3765871,21.7308989 Z M40,40.2668539 C28.4640135,40.2668539 17.4473824,34.3390449 8.77571992,23.5 C17.4316443,12.6609551 28.4482754,6.73314607 40,6.73314607 C51.5517246,6.73314607 62.5526176,12.6609551 71.2242801,23.5 C62.5526176,34.3390449 51.5359865,40.2668539 40,40.2668539 Z" id="Shape"></path>
                <path d="M47.9949266,20.1466292 C45.7916003,20.1466292 43.9974633,18.641573 43.9974633,16.7932584 C43.9974633,15.8823034 44.4381285,15.0505618 45.1463405,14.4432584 C43.5882741,13.8095506 41.8570892,13.4398876 40,13.4398876 C33.3742833,13.4398876 28.0076102,17.9418539 28.0076102,23.5 C28.0076102,29.0581461 33.3742833,33.5601124 40,33.5601124 C46.6257167,33.5601124 51.9923898,29.0581461 51.9923898,23.5 C51.9923898,21.9421348 51.5359865,20.4898876 50.7962985,19.1828652 C50.0723484,19.7769663 49.0808516,20.1466292 47.9949266,20.1466292 Z" id="Shape"></path>
            </g>
        </g>
    </g>
</svg>

<svg width="80" height="47" viewBox="0 0 80 47" xmlns="http://www.w3.org/2000/svg"><title>noun_800026</title><g fill-rule="nonzero" fill="#818181"><path d="M79.377 21.73C69.005 7.738 55.03.027 40 .027 24.97.026 10.995 7.736.623 21.731c-.802 1.082-.802 2.456 0 3.538C10.995 39.263 24.97 46.974 40 46.974c15.03 0 29.005-7.71 39.377-21.705.802-1.082.802-2.456 0-3.538zM40 40.268c-11.536 0-22.553-5.928-31.224-16.767C17.432 12.661 28.448 6.733 40 6.733S62.553 12.661 71.224 23.5C62.553 34.339 51.536 40.267 40 40.267z"/><path d="M47.995 20.147c-2.203 0-3.998-1.505-3.998-3.354 0-.91.441-1.742 1.15-2.35A13.611 13.611 0 0 0 40 13.44c-6.626 0-11.992 4.502-11.992 10.06 0 5.558 5.366 10.06 11.992 10.06 6.626 0 11.992-4.502 11.992-10.06 0-1.558-.456-3.01-1.196-4.317-.724.594-1.715.964-2.801.964z"/></g></svg>
